!!!COM: Palestrina, Giovanni Perluigi da
!!!OPR: Missa Sacerdotes Domini
!!!OTL: Gloria
**kern	**kern	**kern	**kern	**kern	**kern
*Ibass	*Ibarit	*Itenor	*Itenor	*Icalto	*Icant
!Bassus	!Baritone	!Tenor 2	!Tenor 1	!Altus	!Cantus
*clefF4	*clefF4	*clefGv2	*clefGv2	*clefG2	*clefG2
*k[]	*k[]	*k[]	*k[]	*k[]	*k[]
*G:mix	*G:mix	*G:mix	*G:mix	*G:mix	*G:mix
*M4/2	*M4/2	*M4/2	*M4/2	*M4/2	*M4/2
=1	=1	=1	=1	=1	=1
1.G	1r	0r	0r	0r	0r
.	[1d	.	.	.	.
2G	.	.	.	.	.
=2	=2	=2	=2	=2	=2
2F	2d]	0r	0r	1r	0r
2D	2d	.	.	.	.
[1F	2c	.	.	[1a	.
.	2A	.	.	.	.
=3	=3	=3	=3	=3	=3
2F]	1.c	1r	0r	2a]	0r
2F	.	.	.	2a	.
2E	.	[1e	.	2g	.
2C	2c	.	.	2e	.
=4	=4	=4	=4	=4	=4
2.E	1.B	2e]	0r	1.g	0r
.	.	2e	.	.	.
4F	.	.	.	.	.
1G	.	2d	.	.	.
.	2B	2B	.	2g	.
=5	=5	=5	=5	=5	=5
0D	0A	1.d	1r	2.f	0r
.	.	.	.	4g	.
.	.	.	[1f	2a	.
.	.	2d	.	2a	.
=6	=6	=6	=6	=6	=6
2.F	0r	1.c	2f]	2.A	1.a
.	.	.	2f	.	.
4G	.	.	.	4B	.
1A	.	.	2e	4c	.
.	.	.	.	4d	.
.	.	2c	2c	[2e	2a
=7	=7	=7	=7	=7	=7
1E	0r	0B	1.e	4e]	2g
.	.	.	.	4f	.
.	.	.	.	2g	2e
2.E	.	.	.	2G	[1g
.	.	.	2e	[2B	.
4F	.	.	.	.	.
=8	=8	=8	=8	=8	=8
1G	0r	0r	1.d	2B]	2g]
.	.	.	.	2B	2g
1D	.	.	.	[1A	2f
.	.	.	2d	.	2f
=9	=9	=9	=9	=9	=9
1r	1e	0r	0c	1A]	2e
.	.	.	.	.	2ee
1A	1e	.	.	2r	4ee
.	.	.	.	.	4dd
.	.	.	.	[2a	4cc
.	.	.	.	.	4b
=10	=10	=10	=10	=10	=10
1A	1c	0r	0r	2a]	2a
.	.	.	.	2a	1cc
2F	1d	.	.	2a	.
2G	.	.	.	2g	2b
=11	=11	=11	=11	=11	=11
2A	2c	1f	0r	4f	4a
.	.	.	.	4e	4g
2.B-	2.d	.	.	4d	4f
.	.	.	.	4c	8g
.	.	.	.	.	8a
.	.	1f	.	2B-	2b-
4A	4c	.	.	.	.
2F	[2c	.	.	2c	2a
=12	=12	=12	=12	=12	=12
1G	2c]	1d	0r	2r	0g
.	2B	.	.	2g	.
4C	1c	1e	.	4e	.
4D	.	.	.	4f	.
4E	.	.	.	4g	.
4F	.	.	.	4a	.
=13	=13	=13	=13	=13	=13
2G	0r	2d	1g	2b	0r
2E	.	2.e	.	2cc	.
2G	.	.	1g	1b	.
.	.	4d	.	.	.
2G	.	[2d	.	.	.
=14	=14	=14	=14	=14	=14
1A	1r	2d]	1e	1a	0r
.	.	2c#	.	.	.
1D	2r	1d	1f	[1a	.
.	[2d	.	.	.	.
=15	=15	=15	=15	=15	=15
1A	2d]	0r	2e	1a]	0r
.	1c	.	2.f	.	.
2A	.	.	.	2r	.
.	.	.	4e	.	.
2G	2B	.	[2e	2e	.
=16	=16	=16	=16	=16	=16
1F	2A	1r	2e]	2a	0r
.	2A	.	2d	2a	.
2.E	2B	2r	1e	[1g	.
.	[2c	[2e	.	.	.
4F	.	.	.	.	.
=17	=17	=17	=17	=17	=17
1G	2c]	2e]	0r	1g]	2r
.	2B	1d	.	.	2dd
1r	1A	.	.	2r	2ee
.	.	2c	.	2a	2ff
=18	=18	=18	=18	=18	=18
0r	1G	2B	1r	1d	2gg
.	.	2B	.	.	2g
.	1r	2c	2r	2e	2a
.	.	[2d	[2f	2f	[2b-
=19	=19	=19	=19	=19	=19
0r	0r	2d]	2f]	2d	4b-]
.	.	.	.	.	4a
.	.	2c	1e	2A	1a
.	.	1B-	.	2r	.
.	.	.	2d	2d	2g
=20	=20	=20	=20	=20	=20
2r	0r	1A	2c	2e	1a
2A	.	.	2c	2f	.
2B	.	1r	2d	2g	1r
[2c	.	.	[2e	[2a	.
=21	=21	=21	=21	=21	=21
2c]	1r	0r	2e]	4a]	2r
.	.	.	.	4g	.
2B	.	.	2d	1g	2g
1A	2r	.	1c	.	1a
.	2c	.	.	2f#	.
=22	=22	=22	=22	=22	=22
4G	2d	0r	1B	[0g	1b
4F	.	.	.	.	.
4E	1e	.	.	.	.
4D	.	.	.	.	.
1C	.	.	1r	.	1cc
.	4d	.	.	.	.
.	4c	.	.	.	.
=23	=23	=23	=23	=23	=23
0G	2B	1r	0r	1g]	2dd
.	1c	.	.	.	2ee
.	.	2r	.	1g	1dd
.	2B	2d	.	.	.
=24	=24	=24	=24	=24	=24
2r	1c	2e	0r	2g	1cc
2F	.	1f	.	1a	.
2A	1r	.	.	.	2.cc
[2c	.	4e	.	4g	.
.	.	4d	.	4f	4b
=25	=25	=25	=25	=25	=25
4c]	0r	2c	1r	2e	2a
4A	.	.	.	.	.
2B-	.	1d	.	2d	2g
1A	.	.	2r	1e	[1a
.	.	2c#	2e	.	.
=26	=26	=26	=26	=26	=26
2D	0r	1d	2f	2r	2a]
2G	.	.	1g	2d	2b
2E	.	1r	.	2e	2cc
2F	.	.	4f	4d	2a
.	.	.	4e	4c	.
=27	=27	=27	=27	=27	=27
2G	0r	0r	2d	2B	1g
2C	.	.	1e	2c	.
1G	.	.	.	2c	1g
.	.	.	2d	2B	.
=28	=28	=28	=28	=28	=28
1C	1r	0r	1e	1c	1g
2r	[1c	.	1r	[1g	[1ee
[2C	.	.	.	.	.
=29	=29	=29	=29	=29	=29
2C]	2c]	0r	0r	2g]	2ee]
2C	2c	.	.	2g	2ee
1C	1c	.	.	1g	2ee
.	.	.	.	.	4dd
.	.	.	.	.	4cc
=30	=30	=30	=30	=30	=30
1.G	1.d	1r	0r	1.g	2b
.	.	.	.	.	2.b
.	.	[1d	.	.	.
.	.	.	.	.	4a
2G	2d	.	.	2g	4b
.	.	.	.	.	4cc
=31	=31	=31	=31	=31	=31
0G	0B	2d]	0r	2g	4dd
.	.	.	.	.	4cc
.	.	2d	.	4g	4b
.	.	.	.	4a	4a
.	.	1d	.	4b	[1g
.	.	.	.	4cc	.
.	.	.	.	[2b	.
=32	=32	=32	=32	=32	=32
0E	1c	1.e	1r	2b]	2g]
.	.	.	.	1a	2a
.	1B	.	[1e	.	1b
.	.	2e	.	2g#	.
=33	=33	=33	=33	=33	=33
0A	1A	0c	2e]	1a	4cc
.	.	.	.	.	4b
.	.	.	2e	.	4a
.	.	.	.	.	4b
.	1r	.	1e	2r	4cc
.	.	.	.	.	4dd
.	.	.	.	[2a	2ee
=34	=34	=34	=34	=34	=34
1D	0r	1d	1.f	2a]	1dd
.	.	.	.	2a	.
1F	.	1c	.	1a	2r
.	.	.	2f	.	2a
=35	=35	=35	=35	=35	=35
2.G	2r	1B	0d	0g	1b
.	2G	.	.	.	.
4G	.	.	.	.	.
2G	1B	1r	.	.	1dd
2G	.	.	.	.	.
=36	=36	=36	=36	=36	=36
4C	2.c	0r	1e	2r	2cc
4D	.	.	.	.	.
4E	.	.	.	2g	2.gg
4F	4c	.	.	.	.
1G	2B	.	1d	1b	.
.	.	.	.	.	4gg
.	2B	.	.	.	2gg
=37	=37	=37	=37	=37	=37
0A	4A	2r	1c	2.cc	2ff
.	4B	.	.	.	.
.	4c	2A	.	.	4ee
.	4d	.	.	4b	4dd
.	2e	1c	1r	2a	2cc
.	[2c	.	.	2e	2a
=38	=38	=38	=38	=38	=38
1G	2c]	2.d	0r	0g	2r
.	2B	.	.	.	2dd
.	.	4d	.	.	.
4C	1c	2c	.	.	1ee
4D	.	.	.	.	.
4E	.	2c	.	.	.
4F	.	.	.	.	.
=39	=39	=39	=39	=39	=39
2G	0r	4B	2r	1g	1dd
.	.	4c	.	.	.
2G	.	4d	2B	.	.
.	.	4e	.	.	.
1D	.	2f	1d	[1a	2dd
.	.	[2d	.	.	2ff
=40	=40	=40	=40	=40	=40
1A	0r	2d]	2.e	1a]	2ee
.	.	2c	.	.	2ee
.	.	.	4e	.	.
4D	.	1d	2d	[1a	1ff
4E	.	.	.	.	.
4F	.	.	2d	.	.
4G	.	.	.	.	.
=41	=41	=41	=41	=41	=41
1A	2r	0r	4c	2a]	2.ee
.	.	.	4d	.	.
.	1c	.	4e	4g	.
.	.	.	4f	4f	4dd
1r	.	.	2g	4e	4cc
.	.	.	.	4f	4b
.	2c	.	[2e	4g	[2cc
.	.	.	.	4e	.
=42	=42	=42	=42	=42	=42
1r	2A	0r	2e]	1f	2cc]
.	2B	.	2d	.	4b
.	.	.	.	.	4a
2.C	2c	.	1e	2e	2g
.	[2c	.	.	[2g	4f
4C	.	.	.	.	4e
=43	=43	=43	=43	=43	=43
1G	2c]	2r	0r	2g]	1d
.	2B	1d	.	2g	.
1D	1A	.	.	2f#	1r
.	.	2d	.	2f#	.
=44	=44	=44	=44	=44	=44
1E	1G	2B	0r	2g	1r
.	.	2c	.	1g	.
1D	1r	2d	.	.	2.a
.	.	[2d	.	2f	.
.	.	.	.	.	4a
=45	=45	=45	=45	=45	=45
1A	0r	2d]	2r	4e	2a
.	.	.	.	8f	.
.	.	.	.	8g	.
.	.	2c	1e	1a	2a
1E	.	1B	.	.	2b
.	.	.	2e	2g#	[2ee
=46	=46	=46	=46	=46	=46
2A	1r	1A	2c	2.a	2ee]
2D	.	.	2d	.	2ff
.	.	.	.	4b	.
1A	2r	1r	2e	1cc	4ee
.	.	.	.	.	4dd
.	[2c	.	[2e	.	4cc
.	.	.	.	.	4b
=47	=47	=47	=47	=47	=47
0r	2c]	0r	2e]	1r	2a
.	2B	.	2d	.	1g
.	1A	.	1c	2r	.
.	.	.	.	2c	2f#
=48	=48	=48	=48	=48	=48
2r	1G	1r	1B	1d	1g
2G	.	.	.	.	.
2F	2A	2r	1r	1d	1r
[2G	[2B	[2d	.	.	.
=49	=49	=49	=49	=49	=49
2G]	2B]	2d]	0r	0e	1r
2A	1A	2c	.	.	.
1E	.	1B	.	.	1ee
.	2G#	.	.	.	.
=50	=50	=50	=50	=50	=50
1F	1A	1A	1r	2r	2dd
.	.	.	.	2a	2cc
2G	1r	2B	2r	[1g	2b
2C	.	[2c	[2e	.	[2g
=51	=51	=51	=51	=51	=51
1G	0r	2c]	2e]	1g]	4g]
.	.	.	.	.	4a
.	.	1B	2d	.	2b
1A	.	.	1c	1e	2cc
.	.	2A	.	.	2cc
=52	=52	=52	=52	=52	=52
1G	0r	1B	1B	1.g	4dd
.	.	.	.	.	4cc
.	.	.	.	.	4b
.	.	.	.	.	4a
2E	.	1r	2c	.	4g
.	.	.	.	.	4e
2D	.	.	[2d	2f	2a
=53	=53	=53	=53	=53	=53
2.E	0r	0r	2d]	1e	0g
.	.	.	1c	.	.
4F	.	.	.	.	.
1G	.	.	.	1d	.
.	.	.	2B	.	.
=54	=54	=54	=54	=54	=54
1C	2r	0r	1c	2e	2.g
.	2.c	.	.	2.e	.
.	.	.	.	.	4g
1r	.	.	1r	.	2a
.	4c	.	.	4e	.
.	2d	.	.	2f	[2b
=55	=55	=55	=55	=55	=55
0r	2e	0r	0r	2g	2b]
.	2c	.	.	2e	2a
.	2d	.	.	2f	2b
.	2e	.	.	2g	2cc
=56	=56	=56	=56	=56	=56
0r	2.f	2r	0r	2.a	2.dd
.	.	2.d	.	.	.
.	4e	.	.	4g	4cc
.	2d	.	.	2f	4b
.	.	4d	.	.	4a
.	2c	2e	.	2g	[2cc
=57	=57	=57	=57	=57	=57
1r	1d	2f	0r	2.f	2cc]
.	.	2d	.	.	2b
.	.	.	.	4g	.
2.A	1r	2e	.	2a	1cc
.	.	2f	.	2a	.
4A	.	.	.	.	.
=58	=58	=58	=58	=58	=58
2B	0r	2.g	2r	2d	2r
1c	.	.	2.e	2e	1gg
.	.	4f	.	.	.
.	.	2e	.	2.a	.
.	.	.	4e	.	.
2d	.	2d	2f	.	2ff
.	.	.	.	4b	.
=59	=59	=59	=59	=59	=59
2.c	0r	1e	2g	2cc	2.ee
.	.	.	2e	2g	.
4B	.	.	.	.	4dd
2A	.	1r	2f	2a	2cc
2G	.	.	2g	2d	2b
=60	=60	=60	=60	=60	=60
2F	2r	0r	2.a	2.f	2cc
1D	1d	.	.	.	1dd
.	.	.	4g	4g	.
.	.	.	2f	2a	.
2A	2c#	.	2e	[2a	2ee
=61	=61	=61	=61	=61	=61
1D	2.d	0r	1f	2a]	4dd
.	.	.	.	.	4cc
.	.	.	.	2f	4b
.	4c	.	.	.	4a
1E	4B	.	1r	1e	4g#
.	4A	.	.	.	2a
.	2B	.	.	.	.
.	.	.	.	.	4g#
=62	=62	=62	=62	=62	=62
2.A	1c	2r	0r	1e	0a
.	.	1e	.	.	.
4G	.	.	.	.	.
4F	1r	.	.	2r	.
4E	.	.	.	.	.
2F	.	2d	.	[2a	.
=63	=63	=63	=63	=63	=63
1E	0r	2.e	0r	2a]	2r
.	.	.	.	2g#	1ee
.	.	4d	.	.	.
1A	.	4c	.	2.a	.
.	.	4B	.	.	.
.	.	2c	.	.	2ee
.	.	.	.	4g	.
=64	=64	=64	=64	=64	=64
2.D	0r	1d	2r	4f	2.ff
.	.	.	.	4e	.
.	.	.	1f	4f	.
4E	.	.	.	4g	4ee
4F	.	1r	.	[1a	2dd
4G	.	.	.	.	.
2A	.	.	2e	.	2cc
=65	=65	=65	=65	=65	=65
1F	1r	0r	2.f	1a]	4dd
.	.	.	.	.	4cc
.	.	.	.	.	1cc
.	.	.	4e	.	.
1G	2r	.	4d	[1g	.
.	.	.	4c	.	.
.	[2G	.	2d	.	2b
=66	=66	=66	=66	=66	=66
2.C	4G]	0r	1e	2g]	2cc
.	4G	.	.	.	.
.	2G	.	.	2.c	2g
4C	.	.	.	.	.
2F	1A	.	1r	.	2f
.	.	.	.	4c	.
2A	.	.	.	2c	2e
=67	=67	=67	=67	=67	=67
1G	2B	1r	0r	2d	1g
.	2B	.	.	2e	.
2F	2c	2r	.	2f	[1a
2D	[2d	[2A	.	2f	.
=68	=68	=68	=68	=68	=68
1A	2d]	4A]	0r	2.e	1a]
.	.	4A	.	.	.
.	2c	2A	.	.	.
.	.	.	.	4f	.
1G	1d	1B	.	1g	2r
.	.	.	.	.	[2g
=69	=69	=69	=69	=69	=69
1C	0r	2c	1r	1e	4g]
.	.	.	.	.	4g
.	.	2c	.	.	2g
2G	.	2d	2r	[1g	2b
4E	.	[2e	[2B	.	[2g
4F	.	.	.	.	.
=70	=70	=70	=70	=70	=70
1G	1r	2e]	4B]	2g]	2g]
.	.	.	4B	.	.
.	.	2d	2B	2g	1gg
1C	2r	1e	1c	[1g	.
.	[2c	.	.	.	2ee
=71	=71	=71	=71	=71	=71
1G	2c]	0r	2d	1g]	1dd
.	2B	.	2d	.	.
1r	1A	.	2e	1c	[1cc
.	.	.	[2f	.	.
=72	=72	=72	=72	=72	=72
1C	1G	1r	2f]	2r	1cc]
.	.	.	2e	2cc	.
1D	1F	2r	1f	2b-	2r
.	.	[2d	.	[2a	[2ff
=73	=73	=73	=73	=73	=73
1F	0r	2d]	0r	2a]	2ff]
.	.	2c	.	2.a	2ee
1G	.	1B	.	.	1dd
.	.	.	.	4g	.
.	.	.	.	[2g	.
=74	=74	=74	=74	=74	=74
1D	0r	1A	1r	2g]	1dd
.	.	.	.	2f#	.
2r	.	1G	2r	[1g	2b
[2C	.	.	[2e	.	[2cc
=75	=75	=75	=75	=75	=75
2C]	1r	0r	2e]	1g]	2cc]
2BB	.	.	2d	.	2dd
2.C	2r	.	1c	2r	1ee
.	[2e	.	.	[2g	.
4D	.	.	.	.	.
=76	=76	=76	=76	=76	=76
4E	2e]	0r	1B	4g]	1gg
4F	.	.	.	4a	.
2G	2d	.	.	2b	.
2A	1c	.	1A	2cc	2ee
2F	.	.	.	[2a	2ff
=77	=77	=77	=77	=77	=77
1G	1B	1r	0r	4a]	2ee
.	.	.	.	4g	.
.	.	.	.	2g	1dd
2D	1A	2r	.	4f	.
.	.	.	.	4g	.
2F	.	[2f	.	4a	[2cc
.	.	.	.	4b	.
=78	=78	=78	=78	=78	=78
1C	1G	2f]	0r	2cc	4cc]
.	.	.	.	.	4dd
.	.	2e	.	2c	2ee
2.D	2.F	1d	.	1f	[1a
4E	4G	.	.	.	.
=79	=79	=79	=79	=79	=79
1F	4A	1c	1r	2f	1a]
.	4B	.	.	.	.
.	4c	.	.	2a	.
.	4d	.	.	.	.
1G	2e	1B	2r	2.g	1r
.	2d	.	[2g	.	.
.	.	.	.	8f	.
.	.	.	.	8g	.
=80	=80	=80	=80	=80	=80
1D	1d	1A	2g]	2a	1dd
.	.	.	2f	2d	.
2E	2r	[1G	1e	1g	2b
2C	2c	.	.	.	[2cc
=81	=81	=81	=81	=81	=81
1G	2d	0G]	1d	2g	4cc]
.	.	.	.	.	8b
.	.	.	.	.	8a
.	2d	.	.	2g	2b
1C	1e	.	1c	1g	1cc
=82	=82	=82	=82	=82	=82
0G	0d	0G	0B	0g	0dd
=83	=83	=83	=83	=83	=83
1G	1B	0r	0r	1g	1dd
1G	1d	.	.	1g	1b
=84	=84	=84	=84	=84	=84
2C	1.c	0r	0r	2e	2cc
2C	.	.	.	2e	2g
2F	.	.	.	1f	2a
2D	2d	.	.	.	2b
=85	=85	=85	=85	=85	=85
0C	2.e	1c	0r	2.g	4cc
.	.	.	.	.	4dd
.	.	.	.	.	4ee
.	4d	.	.	4f	4ff
.	2c	1e	.	4e	2gg
.	.	.	.	4c	.
.	2B	.	.	[2g	2g
=86	=86	=86	=86	=86	=86
1D	1A	1.d	0r	2g]	1dd
.	.	.	.	2f#	.
1G	1G	.	.	1g	1b
.	.	2e	.	.	.
=87	=87	=87	=87	=87	=87
0D	0r	2.f	1d	0r	2a
.	.	.	.	.	4dd
.	.	4e	.	.	4cc
.	.	2d	1f	.	4b
.	.	.	.	.	4a
.	.	2c	.	.	[2a
=88	=88	=88	=88	=88	=88
1E	0r	1B	1.e	1r	2a]
.	.	.	.	.	2g#
1A	.	1A	.	1c	2a
.	.	.	2f	.	2a
=89	=89	=89	=89	=89	=89
2G	2r	0r	2.g	2d	2b
1C	1c	.	.	2.e	2cc
.	.	.	4f	.	.
.	.	.	2e	.	1g
.	.	.	.	4f	.
2BB	2d	.	2d	[2g	.
=90	=90	=90	=90	=90	=90
4C	1e	0r	1c	2g]	2r
4D	.	.	.	.	.
4E	.	.	.	2g	4g
4F	.	.	.	.	4a
1G	2d	.	1B	1g	4b
.	.	.	.	.	4cc
.	4B	.	.	.	[2dd
.	4c	.	.	.	.
=91	=91	=91	=91	=91	=91
1.D	4d	2r	0r	2.f	2dd]
.	4e	.	.	.	.
.	1f	1d	.	.	2a
.	.	.	.	4g	.
.	.	.	.	1a	2r
2C#	2e	2e	.	.	[2a
=92	=92	=92	=92	=92	=92
1D	1d	1f	0r	1r	2a]
.	.	.	.	.	2b
1A	1c	2e	.	1a	1cc
.	.	4c	.	.	.
.	.	4d	.	.	.
=93	=93	=93	=93	=93	=93
1E	0r	4e	2r	2g	2b
.	.	4f	.	.	.
.	.	1g	1e	4e	4g
.	.	.	.	4f	4a
1r	.	.	.	2g	4b
.	.	.	.	.	4cc
.	.	2f	2f	2a	[2dd
=94	=94	=94	=94	=94	=94
0r	1r	1e	1g	2b	2dd]
.	.	.	.	4a	2cc#
.	.	.	.	4g	.
.	2r	1d	2f	1a	2dd
.	2d	.	4d	.	2ff
.	.	.	4e	.	.
=95	=95	=95	=95	=95	=95
0r	1d	0r	4f	2a	1ff
.	.	.	4g	.	.
.	.	.	1a	2a	.
.	2c	.	.	2cc	2ee
.	2c	.	2g	[2cc	2cc
=96	=96	=96	=96	=96	=96
1r	2A	1r	1f	2cc]	2cc
.	2B	.	.	4b	2dd
.	.	.	.	4a	.
1C	1c	2r	1e	2g	2.ee
.	.	2e	.	2g	.
.	.	.	.	.	4dd
=97	=97	=97	=97	=97	=97
1C	1c	1e	0r	2g	1cc
.	.	.	.	2g	.
2G	1r	2d	.	1g	2b
2G	.	2d	.	.	[2dd
=98	=98	=98	=98	=98	=98
2G	0r	2B	1r	1g	2dd]
2E	.	2c	.	.	2ee
[1D	.	1d	2r	2r	2.ff
.	.	.	2f	[2a	.
.	.	.	.	.	4ee
=99	=99	=99	=99	=99	=99
1D]	1r	1d	1f	2a]	4dd
.	.	.	.	.	4cc
.	.	.	.	2b	2dd
1A	2r	1r	2e	[1cc	[1ee
.	[2A	.	2e	.	.
=100	=100	=100	=100	=100	=100
1r	2A]	0r	2c	2cc]	2ee]
.	2B	.	2d	2b	2dd
2r	1c	.	1e	2g	1cc
[2A	.	.	.	[2a	.
=101	=101	=101	=101	=101	=101
2A]	2.c	1r	1e	2a]	1a
2A	.	.	.	2e	.
.	4c	.	.	.	.
1G	2d	2r	1r	[1g	[1b
.	2d	[2B	.	.	.
=102	=102	=102	=102	=102	=102
1E	2e	2B]	0r	2g]	2b]
.	1c	2c	.	2e	2ee
1F	.	1d	.	1a	[1dd
.	4B	.	.	.	.
.	4A	.	.	.	.
=103	=103	=103	=103	=103	=103
1G	1B	2.d	1r	0g	1dd]
.	.	4d	.	.	.
1C	1c	2e	2r	.	2cc
.	.	2e	[2c	.	2gg
=104	=104	=104	=104	=104	=104
2.F	1A	2f	2c]	2r	1ff
.	.	1d	2d	1a	.
8E	.	.	.	.	.
8D	.	.	.	.	.
1A	1r	.	1e	.	2.ee
.	.	4c	.	2a	.
.	.	4B	.	.	4ee
=105	=105	=105	=105	=105	=105
1A	0r	1c	2.e	1a	1ee
.	.	.	4e	.	.
1D	.	1d	2f	1a	1dd
.	.	.	2f	.	.
=106	=106	=106	=106	=106	=106
2.E	0r	1B	2g	1.g	2r
.	.	.	1e	.	4g
4F	.	.	.	.	4a
2G	.	1r	.	.	4b
.	.	.	.	.	4g
2A	.	.	4d	2f#	[2cc
.	.	.	4c	.	.
=107	=107	=107	=107	=107	=107
1G	1r	0r	1d	1g	2cc]
.	.	.	.	.	2b
1C	2r	.	1e	2g	1cc
.	2G	.	.	2g	.
=108	=108	=108	=108	=108	=108
2.F	1A	0r	1c	0f	2r
.	.	.	.	.	2cc
4E	.	.	.	.	.
1D	2B	.	1r	.	1dd
.	2B	.	.	.	.
=109	=109	=109	=109	=109	=109
2C	1.c	1r	0r	2e	2ee
2C	.	.	.	2g	2ee
2F	.	2r	.	2a	2ff
2A	2c	2A	.	2a	2ee
=110	=110	=110	=110	=110	=110
4G	2B	1B	0r	2d	2gg
4F	.	.	.	.	.
4E	2.e	.	.	2g	2.gg
4D	.	.	.	.	.
1C	.	2c	.	2.e	.
.	4d	.	.	.	4ff
.	[2c	2c	.	.	2ee
.	.	.	.	4f	.
=111	=111	=111	=111	=111	=111
0G	2c]	1.d	1r	1g	0dd
.	4B	.	.	.	.
.	4A	.	.	.	.
.	1B	.	2r	1g	.
.	.	2d	2B	.	.
=112	=112	=112	=112	=112	=112
4A	1A	2c	1c	2e	2r
4G	.	.	.	.	.
4F	.	2.f	.	2a	2cc
4E	.	.	.	.	.
2D	1r	.	2d	[1a	2ff
.	.	4e	.	.	.
2D	.	[2d	2d	.	2ff
=113	=113	=113	=113	=113	=113
1A	0r	2d]	1.e	1a]	1.ee
.	.	4c	.	.	.
.	.	4B	.	.	.
1A	.	1c	.	1a	.
.	.	.	2e	.	2cc
=114	=114	=114	=114	=114	=114
2r	0r	1B	2d	1g	4dd
.	.	.	.	.	4cc
2G	.	.	2.g	.	4b
.	.	.	.	.	4a
2B	.	1r	.	2r	1g
.	.	.	4f	.	.
2c	.	.	[2e	[2g	.
=115	=115	=115	=115	=115	=115
1A	0r	0r	2e]	2g]	2r
.	.	.	4d	2f#	1cc
.	.	.	4c	.	.
1G	.	.	1d	[1g	.
.	.	.	.	.	2b
=116	=116	=116	=116	=116	=116
1C	2r	0r	1c	2g]	1.ee
.	1c	.	.	2a	.
1r	.	.	1r	[1g	.
.	2B	.	.	.	2dd
=117	=117	=117	=117	=117	=117
0r	2e	0r	0r	1g]	2cc
.	2e	.	.	.	2.b
.	2.d	.	.	2.f	.
.	.	.	.	.	4a
.	.	.	.	.	[2a
.	4c	.	.	4e	.
=118	=118	=118	=118	=118	=118
1r	1B	2r	0r	1d	2a]
.	.	1d	.	.	2g#
2r	1A	.	.	1e	[1a
[2A	.	2c	.	.	.
=119	=119	=119	=119	=119	=119
2A]	0r	2f	0r	2r	1a]
2F	.	2f	.	1a	.
1c	.	2.e	.	.	2r
.	.	.	.	2g	4cc
.	.	4d	.	.	4dd
=120	=120	=120	=120	=120	=120
1C	0r	1c	2r	2cc	4ee
.	.	.	.	.	4ff
.	.	.	1e	2.g	1gg
2.G	.	1B	.	.	.
.	.	.	.	4a	.
.	.	.	2d	[2b	2gg
4F	.	.	.	.	.
=121	=121	=121	=121	=121	=121
1E	0r	0r	2g	4b]	2gg
.	.	.	.	4a	.
.	.	.	2g	4b	2ee
.	.	.	.	4cc	.
1F	.	.	2.f	1a	4dd
.	.	.	.	.	4cc
.	.	.	.	.	[2cc
.	.	.	4e	.	.
=122	=122	=122	=122	=122	=122
1G	1r	0r	1d	1g	2cc]
.	.	.	.	.	2b
1A	2r	.	1c	1e	2cc
.	[2c	.	.	.	[2ee
=123	=123	=123	=123	=123	=123
1G	2c]	0r	0r	2r	2ee]
.	2B	.	.	1g	2dd
1r	2c	.	.	.	2ee
.	2d	.	.	2f	2dd
=124	=124	=124	=124	=124	=124
1r	2e	1r	0r	2g	2b
.	2e	.	.	2g	2cc
2.D	1f	2r	.	[1a	1dd
.	.	[2d	.	.	.
4D	.	.	.	.	.
=125	=125	=125	=125	=125	=125
1A	1e	2d]	0r	2a]	2.ee
.	.	2c	.	2a	.
.	.	.	.	.	4ff
1G	1r	2d	.	1b-	2gg
.	.	2e	.	.	2g
=126	=126	=126	=126	=126	=126
1F	0r	2f	1r	2.a	0cc
.	.	2f	.	.	.
.	.	.	.	8g	.
.	.	.	.	8f	.
1C	.	1g	2r	1e	.
.	.	.	[2e	.	.
=127	=127	=127	=127	=127	=127
1D	0r	1f	2e]	1r	2.a
.	.	.	2d	.	.
.	.	.	.	.	4b
2A	.	1r	2e	1a	2cc
2A	.	.	2f	.	[2cc
=128	=128	=128	=128	=128	=128
2G	1r	0r	2g	2d	2cc]
2G	.	.	2g	2d	2b
2F	2r	.	1a	2f	1cc
2F	2c	.	.	2f	.
=129	=129	=129	=129	=129	=129
1C	1c	0r	1g	1e	2r
.	.	.	.	.	2ee
1r	2B	.	1r	1g	2dd
.	2c	.	.	.	2ee
=130	=130	=130	=130	=130	=130
0r	2d	1r	0r	2f	4a
.	.	.	.	.	4b
.	2e	.	.	2g	4cc
.	.	.	.	.	8b
.	.	.	.	.	8a
.	2.d	2r	.	1f	2b
.	.	2d	.	.	[2a
.	4c	.	.	.	.
=131	=131	=131	=131	=131	=131
1r	1B	1d	0r	2d	2a]
.	.	.	.	2d	2g#
2r	1A	2c	.	2e	[1a
2D	.	2d	.	2f	.
=132	=132	=132	=132	=132	=132
2C	0r	2e	1r	2e	1a]
2D	.	2f	.	2d	.
4E	.	2.e	2r	2B	[1g
4D	.	.	.	.	.
4C	.	.	2e	2c	.
4BB	.	4d	.	.	.
=133	=133	=133	=133	=133	=133
4C	0r	1c	1e	2G	1g]
4D	.	.	.	.	.
4E	.	.	.	2.G	.
4F	.	.	.	.	.
1G	.	1B	2d	.	2r
.	.	.	.	4A	.
.	.	.	2e	2B	2g
=134	=134	=134	=134	=134	=134
2F	2r	0r	2f	0c	2a
2E	2G	.	2g	.	2.cc
1F	2A	.	2.f	.	.
.	.	.	.	.	4b
.	[2c	.	.	.	2a
.	.	.	4e	.	.
=135	=135	=135	=135	=135	=135
1G	2c]	0r	1d	2r	1g
.	2B	.	.	2g	.
1A	2.c	.	1c	2e	2r
.	.	.	.	[2a	[2cc
.	4d	.	.	.	.
=136	=136	=136	=136	=136	=136
2.c	2e	2r	0r	4a]	2cc]
.	.	.	.	4g	.
.	2c	2A	.	4e	2cc
4B	.	.	.	4f	.
2G	1d	2B	.	2g	2b
2B	.	[2d	.	2g	2g
=137	=137	=137	=137	=137	=137
1A	1e	2d]	0r	2r	0a
.	.	2c#	.	2e	.
[1D	1d	2.d	.	2f	.
.	.	.	.	[2a	.
.	.	4e	.	.	.
=138	=138	=138	=138	=138	=138
2D]	1r	2f	2r	2a]	0r
2G	.	2d	2B	2g	.
1C	2r	1e	2c	1g	.
.	2c	.	[2e	.	.
=139	=139	=139	=139	=139	=139
1D	2A	1f	2e]	0r	1dd
.	2B	.	2d	.	.
2.A	2.c	1e	2.e	.	1cc
8G	8B	.	4f	.	.
8F	8A	.	.	.	.
=140	=140	=140	=140	=140	=140
1E	2B	1r	2g	0r	1ee
.	2c#	.	2e	.	.
1D	1d	2r	1f	.	2a
.	.	2d	.	.	2ff
=141	=141	=141	=141	=141	=141
0r	0r	2B	1g	2r	2dd
.	.	2c	.	2cc	2ee
.	.	2.d	1f	2a	2.ff
.	.	.	.	2b	.
.	.	8c	.	.	8ee
.	.	8B	.	.	8dd
=142	=142	=142	=142	=142	=142
1r	0r	2c	1r	2a	2ee
.	.	2d	.	2a	2ff
2r	.	1e	2r	1g	4gg
.	.	.	.	.	4ff
2c	.	.	2e	.	4ee
.	.	.	.	.	4dd
=143	=143	=143	=143	=143	=143
2A	0r	0r	2c	2r	2ee
2B	.	.	2d	2g	2dd
2.c	.	.	2.e	[1g	1cc
8B	.	.	8d	.	.
8A	.	.	8c	.	.
=144	=144	=144	=144	=144	=144
2B	1r	0r	2d	2g]	2r
2c	.	.	2e	2g	2cc
2F	2r	.	1f	2.a	2cc
2F	2c	.	.	.	2cc
.	.	.	.	4b	.
=145	=145	=145	=145	=145	=145
2F	2c	0r	0r	4cc	1a
.	.	.	.	4b	.
2F	2c	.	.	4a	.
.	.	.	.	4g	.
2D	1d	.	.	4f	1ff
.	.	.	.	4e	.
[2d	.	.	.	2d	.
=146	=146	=146	=146	=146	=146
2d]	1e	1r	0r	1A	1ee
2c#	.	.	.	.	.
2.d	2f	2r	.	2r	1dd
.	[2f	2d	.	[2a	.
4c	.	.	.	.	.
=147	=147	=147	=147	=147	=147
1B-	4f]	2d	0r	2a]	1dd
.	4e	.	.	.	.
.	1d	2d	.	2g	.
1A	.	1e	.	2.a	2r
.	2c#	.	.	.	2a
.	.	.	.	4g	.
=148	=148	=148	=148	=148	=148
1D	1d	1f	1r	4f	2a
.	.	.	.	4e	.
.	.	.	.	1d	2a
4G	1B	2g	2r	.	2b
4F	.	.	.	.	.
4E	.	[2g	2e	2G	[2ee
4D	.	.	.	.	.
=149	=149	=149	=149	=149	=149
2C	1c	4g]	2e	1g	4ee]
.	.	4f	.	.	4dd
2C	.	1e	2e	.	2cc
2D	1r	.	1f	1r	2.a
2D	.	2d	.	.	.
.	.	.	.	.	4b
=150	=150	=150	=150	=150	=150
1C	2.c	1e	1g	1r	4cc
.	.	.	.	.	4dd
.	.	.	.	.	2ee
.	4B	.	.	.	.
2.F	2.A	1c	2a	2r	[1ff
.	.	.	[2a	2f	.
4E	4G	.	.	.	.
=151	=151	=151	=151	=151	=151
1D	1F	1d	4a]	4f	2ff]
.	.	.	4g	4g	.
.	.	.	1f	4a	2dd
.	.	.	.	4b	.
1C	1G	1r	.	1cc	2r
.	.	.	2e	.	2ee
=152	=152	=152	=152	=152	=152
1D	1F	2.d	1f	2r	2a
.	.	.	.	2a	1dd
.	.	4c	.	.	.
[1G	2r	2.B	[1d	4g	.
.	.	.	.	4a	.
.	4G	.	.	4b	2dd
.	4A	4A	.	4cc	.
=153	=153	=153	=153	=153	=153
1G]	4B	1G	0d]	2dd	2.b
.	4c	.	.	.	.
.	2.d	.	.	1g	.
.	.	.	.	.	4cc
1D	.	1A	.	.	1dd
.	4c	.	.	.	.
.	2A	.	.	2f#	.
=154	=154	=154	=154	=154	=154
0G	0B	0G	0d	0g	0b
==	==	==	==	==	==
*-	*-	*-	*-	*-	*-
!!!CDT: 1525/^1526/-1594/2/2
!!!OCY: Italia
!!!AGN: Mass (Canonic)
!!!AST: renaissance, vocal
!!!ASW: Motet (unidentified)
!!!PWK: Masses, Book 8
!!!RNB: Cadence finals: C
!!!YOR: Le Opere Complete, v. 24, p. 157
!!!YOO: Rome, Italy: Fratelli Scalera
!!!END: 1992//
!!!EED: John Miller
!!!YEC: Copyright 2000, John Miller
!!!YEN: United States of America
!!!YEM: Rights to all derivative electronic formats reserved.
!!!YEM: Refer to licensing agreement for further details.
!!!YEM: This file must be accompanied by the licensing agreement.
!!!YEM: A copy of the licensing agreement may be found at http://www.music-cog.ohio-state.edu/HumdrumDatabases/Palestrina/license.txt
!!!EMD: converted to Humdrum by Bret Aarden
